!!!COM:	Bach, Johann Sebastian
!!!OMV:	Du lebensf&uuml;rst, Herr Jesu Christ
!!!OTL:	Du lebensf&uuml;rst, Herr Jesu Christ
**kern	**fb	**kern	**kern	**kern
*part4	*part4	*part3	*part2	*part1
*staff4	*	*staff3	*staff2	*staff1
*I"Voice	*	*I"Voice	*I"Voice	*I"Voice
*I'V	*	*I'V	*I'V	*I'V
*clefF4	*	*clefGv2	*clefG2	*clefG2
*k[f#]	*	*k[f#]	*k[f#]	*k[f#]
*M3/4	*	*M3/4	*M3/4	*M3/4
=	=	=	=	=
4G	.	4B	4d	4g
4E	.	4B	4e	4g
4D	.	[4d	4f#	4a
=3	=3	=3	=3	=3
4.G	.	4.d]	2.g	4.b
8A	.	8c	.	8cc
4B	6	4B	.	4dd
=4	=4	=4	=4	=4
4G	.	4B	4g	4dd
4A	4 5	4A	4e	4dd
4AA	#	4A	4e	4cc#X
=5	=5	=5	=5	=5
2D;	.	2A;	2f#;	2dd;
4G	.	4G	4g	4b
=6	=6	=6	=6	=6
2C	.	2G	2e	2cc
4GG	.	4G	4d	4b
=7	=7	=7	=7	=7
2.D	.	2.F#	2.d	2.a
=8	=8	=8	=8	=8
4E	5	4E	4B	4g
2D	.	2A	2d	2f#
=9	=9	=9	=9	=9
2.GG;	.	2.B;	2.d;	2.g;
=10:|!	=10:|!	=10:|!	=10:|!	=10:|!
4D	.	4F#	4d	4a
4D	.	4F#	4d	4a
4BB	#6\	4G#X	4d	4b
=11	=11	=11	=11	=11
2AA	.	2A	2c	2cc
4C	6	4A	4e	4cc
=12	=12	=12	=12	=12
2E	#	4.G#X	2e	4.b
.	.	8A	.	8a
4EE	.	4G#	4e	4b
=13	=13	=13	=13	=13
2.AA;	.	2.A;	2.c;	2.a;
=14	=14	=14	=14	=14
!!linebreak:original
4E	#	4G#X	4e	4b
4E	.	4B	4g#X	4b
4E	.	4e	4g#	4b
=15	=15	=15	=15	=15
4.A	.	4.e	2.a	4.cc
8B	.	8d	.	8dd
4c	6	4c	.	4ee
=16	=16	=16	=16	=16
4A	.	4c	4a	4ee
4B	#	4B	4f#	4dd#X
4B	.	4B	4f#	4dd#
=17	=17	=17	=17	=17
2E;	.	2B;	2g;	2ee;
4D	.	4dn	4a	4ff#
=18	=18	=18	=18	=18
2G	.	2d	2b	2gg
4G	.	4d	4g	4b
=19	=19	=19	=19	=19
2C	.	2e	2g	2cc
4GG	.	4d	4g	4b
=20	=20	=20	=20	=20
4D	.	4d	4f#	4a
4D;	.	4d;	4f#;	4a;
4BB	6	4d	4g	4dd
=21	=21	=21	=21	=21
4.C	.	4.c	4.g	4.ee
8D	.	8A	8f#	8dd
4E	6	4G	4e	4cc
=22	=22	=22	=22	=22
4G	.	4G	4d	4b
2D	4	4G	2d	2a
.	3	4F#	.	.
=23	=23	=23	=23	=23
2.GG;	.	2.G;	2.d;	2.g;
=||	=||	=||	=||	=||
*-	*-	*-	*-	*-
!!!system-decoration: s1,s2,s3,s4
